X:1
T:Rule Britannia. TLY.001
M:4/4
L:1/8
Q:1/4=100
S:Wm.Tildesley,Swinton,Lancs.1860s.
R:.Air
O:England.
A:Lancashire.
N:Bar line placed before the A in MS.Iâ€™ve corrected this as it does not
N:affect the tune in any way.CGP.
H:1860.
Z:vmp.Taz Tarry.
K:D
A2|d2d2 d/e/f//g/ ad|e2 ef/g/f2 z A|d/c/d/e/ f/e/f/g/ aefe|\
de/f/ e d c2zâ€*â€A|!
cAdc ag/2f/2 ed|c2~B2A2 z2|d2dA BG z d|\
gfed A2 z e|a2 g2 f/d/g/e/ a/f/e/d/|!
A2 ~e2d2 z2 ||:â€^Chorusâ€f3f gg c f|gfed A2 z2|\
a2g2 f/d/g/e/ a/f/e/d/|A2e2d2:|

